static/img/kroki/e6aa887ca425ccfcc236525b85248df3.svg

<?xml version="1.0" encoding="us-ascii" standalone="no"?><svg xmlns="http://www.w3.org/2000/svg" xmlns:xlink="http://www.w3.org/1999/xlink" contentStyleType="text/css" height="645px" preserveAspectRatio="none" style="width:673px;height:645px;" version="1.1" viewBox="0 0 673 645" width="673px" zoomAndPan="magnify"><defs/><g><!--class aws_ec2_subnet--><g id="elem_aws_ec2_subnet"><rect codeLine="23" fill="#3D176E" height="39.7891" id="aws_ec2_subnet" rx="2.5" ry="2.5" style="stroke:#000D19;stroke-width:0.5;" width="179" x="7" y="599.55"/><ellipse cx="22" cy="619.4445" fill="#ADD1B2" rx="11" ry="11" style="stroke:#181818;stroke-width:1.0;"/><path d="M24.9688,625.0852 Q24.3906,625.382 23.75,625.5227 Q23.1094,625.6789 22.4063,625.6789 Q19.9063,625.6789 18.5781,624.0383 Q17.2656,622.382 17.2656,619.257 Q17.2656,616.132 18.5781,614.4758 Q19.9063,612.8195 22.4063,612.8195 Q23.1094,612.8195 23.75,612.9758 Q24.4063,613.132 24.9688,613.4289 L24.9688,616.1477 Q24.3438,615.5695 23.75,615.3039 Q23.1563,615.0227 22.5313,615.0227 Q21.1875,615.0227 20.5,616.1008 Q19.8125,617.1633 19.8125,619.257 Q19.8125,621.3508 20.5,622.4289 Q21.1875,623.4914 22.5313,623.4914 Q23.1563,623.4914 23.75,623.2258 Q24.3438,622.9445 24.9688,622.3664 L24.9688,625.0852 Z " fill="#000000"/><text fill="#D9B8FF" font-family="Helvetica" font-size="17" lengthAdjust="spacing" textLength="137" x="41" y="625.3298">aws_ec2_subnet</text></g><!--class azure_network_subnet--><g id="elem_azure_network_subnet"><rect codeLine="26" fill="#3D176E" height="39.7891" id="azure_network_subnet" rx="2.5" ry="2.5" style="stroke:#000D19;stroke-width:0.5;" width="233" x="221" y="599.55"/><ellipse cx="236" cy="619.4445" fill="#ADD1B2" rx="11" ry="11" style="stroke:#181818;stroke-width:1.0;"/><path d="M238.9688,625.0852 Q238.3906,625.382 237.75,625.5227 Q237.1094,625.6789 236.4063,625.6789 Q233.9063,625.6789 232.5781,624.0383 Q231.2656,622.382 231.2656,619.257 Q231.2656,616.132 232.5781,614.4758 Q233.9063,612.8195 236.4063,612.8195 Q237.1094,612.8195 237.75,612.9758 Q238.4063,613.132 238.9688,613.4289 L238.9688,616.1477 Q238.3438,615.5695 237.75,615.3039 Q237.1563,615.0227 236.5313,615.0227 Q235.1875,615.0227 234.5,616.1008 Q233.8125,617.1633 233.8125,619.257 Q233.8125,621.3508 234.5,622.4289 Q235.1875,623.4914 236.5313,623.4914 Q237.1563,623.4914 237.75,623.2258 Q238.3438,622.9445 238.9688,622.3664 L238.9688,625.0852 Z " fill="#000000"/><text fill="#D9B8FF" font-family="Helvetica" font-size="17" lengthAdjust="spacing" textLength="191" x="255" y="625.3298">azure_network_subnet</text></g><!--class gcp_subnetwork--><g id="elem_gcp_subnetwork"><rect codeLine="29" fill="#3D176E" height="39.7891" id="gcp_subnetwork" rx="2.5" ry="2.5" style="stroke:#000D19;stroke-width:0.5;" width="178" x="488.5" y="599.55"/><ellipse cx="503.5" cy="619.4445" fill="#ADD1B2" rx="11" ry="11" style="stroke:#181818;stroke-width:1.0;"/><path d="M506.4688,625.0852 Q505.8906,625.382 505.25,625.5227 Q504.6094,625.6789 503.9063,625.6789 Q501.4063,625.6789 500.0781,624.0383 Q498.7656,622.382 498.7656,619.257 Q498.7656,616.132 500.0781,614.4758 Q501.4063,612.8195 503.9063,612.8195 Q504.6094,612.8195 505.25,612.9758 Q505.9063,613.132 506.4688,613.4289 L506.4688,616.1477 Q505.8438,615.5695 505.25,615.3039 Q504.6563,615.0227 504.0313,615.0227 Q502.6875,615.0227 502,616.1008 Q501.3125,617.1633 501.3125,619.257 Q501.3125,621.3508 502,622.4289 Q502.6875,623.4914 504.0313,623.4914 Q504.6563,623.4914 505.25,623.2258 Q505.8438,622.9445 506.4688,622.3664 L506.4688,625.0852 Z " fill="#000000"/><text fill="#D9B8FF" font-family="Helvetica" font-size="17" lengthAdjust="spacing" textLength="136" x="522.5" y="625.3298">gcp_subnetwork</text></g><!--class resource--><g id="elem_resource"><rect codeLine="32" fill="#3D176E" height="310.7578" id="resource" rx="2.5" ry="2.5" style="stroke:#000D19;stroke-width:0.5;" width="227" x="224" y="7"/><ellipse cx="292.75" cy="26.8945" fill="#ADD1B2" rx="11" ry="11" style="stroke:#181818;stroke-width:1.0;"/><path d="M295.7188,32.5352 Q295.1406,32.832 294.5,32.9727 Q293.8594,33.1289 293.1563,33.1289 Q290.6563,33.1289 289.3281,31.4883 Q288.0156,29.832 288.0156,26.707 Q288.0156,23.582 289.3281,21.9258 Q290.6563,20.2695 293.1563,20.2695 Q293.8594,20.2695 294.5,20.4258 Q295.1563,20.582 295.7188,20.8789 L295.7188,23.5977 Q295.0938,23.0195 294.5,22.7539 Q293.9063,22.4727 293.2813,22.4727 Q291.9375,22.4727 291.25,23.5508 Q290.5625,24.6133 290.5625,26.707 Q290.5625,28.8008 291.25,29.8789 Q291.9375,30.9414 293.2813,30.9414 Q293.9063,30.9414 294.5,30.6758 Q295.0938,30.3945 295.7188,29.8164 L295.7188,32.5352 Z " fill="#000000"/><text fill="#D9B8FF" font-family="Helvetica" font-size="17" lengthAdjust="spacing" textLength="71" x="318.25" y="32.7798">resource</text><line style="stroke:#000D19;stroke-width:0.5;" x1="225" x2="450" y1="46.7891" y2="46.7891"/><text fill="#D9B8FF" font-family="sans-serif" font-size="14" font-weight="bold" lengthAdjust="spacing" textLength="29" x="235" y="68.7842">age</text><text fill="#D9B8FF" font-family="sans-serif" font-size="14" lengthAdjust="spacing" textLength="66" x="264" y="68.7842">: duration</text><text fill="#D9B8FF" font-family="sans-serif" font-size="14" font-weight="bold" lengthAdjust="spacing" textLength="43" x="235" y="95.0811">atime</text><text fill="#D9B8FF" font-family="sans-serif" font-size="14" lengthAdjust="spacing" textLength="70" x="278" y="95.0811">: datetime</text><text fill="#D9B8FF" font-family="sans-serif" font-size="14" font-weight="bold" lengthAdjust="spacing" textLength="43" x="235" y="121.3779">ctime</text><text fill="#D9B8FF" font-family="sans-serif" font-size="14" lengthAdjust="spacing" textLength="70" x="278" y="121.3779">: datetime</text><text fill="#D9B8FF" font-family="sans-serif" font-size="14" font-weight="bold" lengthAdjust="spacing" textLength="14" x="235" y="147.6748">id</text><text fill="#D9B8FF" font-family="sans-serif" font-size="14" lengthAdjust="spacing" textLength="48" x="249" y="147.6748">: string</text><text fill="#D9B8FF" font-family="sans-serif" font-size="14" font-weight="bold" lengthAdjust="spacing" textLength="33" x="235" y="173.9717">kind</text><text fill="#D9B8FF" font-family="sans-serif" font-size="14" lengthAdjust="spacing" textLength="48" x="268" y="173.9717">: string</text><text fill="#D9B8FF" font-family="sans-serif" font-size="14" font-weight="bold" lengthAdjust="spacing" textLength="90" x="235" y="200.2686">last_access</text><text fill="#D9B8FF" font-family="sans-serif" font-size="14" lengthAdjust="spacing" textLength="66" x="325" y="200.2686">: duration</text><text fill="#D9B8FF" font-family="sans-serif" font-size="14" font-weight="bold" lengthAdjust="spacing" textLength="90" x="235" y="226.5654">last_update</text><text fill="#D9B8FF" font-family="sans-serif" font-size="14" lengthAdjust="spacing" textLength="66" x="325" y="226.5654">: duration</text><text fill="#D9B8FF" font-family="sans-serif" font-size="14" font-weight="bold" lengthAdjust="spacing" textLength="48" x="235" y="252.8623">mtime</text><text fill="#D9B8FF" font-family="sans-serif" font-size="14" lengthAdjust="spacing" textLength="70" x="283" y="252.8623">: datetime</text><text fill="#D9B8FF" font-family="sans-serif" font-size="14" font-weight="bold" lengthAdjust="spacing" textLength="43" x="235" y="279.1592">name</text><text fill="#D9B8FF" font-family="sans-serif" font-size="14" lengthAdjust="spacing" textLength="48" x="278" y="279.1592">: string</text><text fill="#D9B8FF" font-family="sans-serif" font-size="14" font-weight="bold" lengthAdjust="spacing" textLength="34" x="235" y="305.4561">tags</text><text fill="#D9B8FF" font-family="sans-serif" font-size="14" lengthAdjust="spacing" textLength="171" x="269" y="305.4561">: dictionary[string, string]</text></g><!--class subnet--><g id="elem_subnet"><rect codeLine="44" fill="#3D176E" height="39.7891" id="subnet" rx="2.5" ry="2.5" style="stroke:#000D19;stroke-width:0.5;" width="99" x="288" y="438.76"/><ellipse cx="303" cy="458.6545" fill="#ADD1B2" rx="11" ry="11" style="stroke:#181818;stroke-width:1.0;"/><path d="M305.9688,464.2952 Q305.3906,464.592 304.75,464.7327 Q304.1094,464.8889 303.4063,464.8889 Q300.9063,464.8889 299.5781,463.2483 Q298.2656,461.592 298.2656,458.467 Q298.2656,455.342 299.5781,453.6858 Q300.9063,452.0295 303.4063,452.0295 Q304.1094,452.0295 304.75,452.1858 Q305.4063,452.342 305.9688,452.6389 L305.9688,455.3577 Q305.3438,454.7795 304.75,454.5139 Q304.1563,454.2327 303.5313,454.2327 Q302.1875,454.2327 301.5,455.3108 Q300.8125,456.3733 300.8125,458.467 Q300.8125,460.5608 301.5,461.6389 Q302.1875,462.7014 303.5313,462.7014 Q304.1563,462.7014 304.75,462.4358 Q305.3438,462.1545 305.9688,461.5764 L305.9688,464.2952 Z " fill="#000000"/><text fill="#D9B8FF" font-family="Helvetica" font-size="17" lengthAdjust="spacing" textLength="57" x="322" y="464.5398">subnet</text></g><!--reverse link subnet to aws_ec2_subnet--><g id="link_subnet_aws_ec2_subnet"><path codeLine="47" d="M293.3994,488.7136 C247.0794,519.2336 172.06,568.66 125.67,599.22 " fill="none" id="subnet-backto-aws_ec2_subnet" style="stroke:#FFAF37;stroke-width:2.0;"/><polygon fill="none" points="308.43,478.81,290.0982,483.7034,296.7006,493.7238,308.43,478.81" style="stroke:#FFAF37;stroke-width:2.0;"/></g><!--reverse link subnet to azure_network_subnet--><g id="link_subnet_azure_network_subnet"><path codeLine="48" d="M337.5,496.81 C337.5,527.33 337.5,568.66 337.5,599.22 " fill="none" id="subnet-backto-azure_network_subnet" style="stroke:#FFAF37;stroke-width:2.0;"/><polygon fill="none" points="337.5,478.81,331.5,496.81,343.5,496.81,337.5,478.81" style="stroke:#FFAF37;stroke-width:2.0;"/></g><!--reverse link subnet to gcp_subnetwork--><g id="link_subnet_gcp_subnetwork"><path codeLine="49" d="M381.4619,488.742 C427.5919,519.262 502.25,568.66 548.45,599.22 " fill="none" id="subnet-backto-gcp_subnetwork" style="stroke:#FFAF37;stroke-width:2.0;"/><polygon fill="none" points="366.45,478.81,378.1512,493.7459,384.7725,483.738,366.45,478.81" style="stroke:#FFAF37;stroke-width:2.0;"/></g><!--reverse link resource to subnet--><g id="link_resource_subnet"><path codeLine="50" d="M337.5,335.85 C337.5,384.14 337.5,413.37 337.5,438.68 " fill="none" id="resource-backto-subnet" style="stroke:#FFAF37;stroke-width:2.0;"/><polygon fill="none" points="337.5,317.85,331.5,335.85,343.5,335.85,337.5,317.85" style="stroke:#FFAF37;stroke-width:2.0;"/></g><!--SRC=[XP9BImCn58Ntyoi2xeg5Lj5QSQC5qOs8kXCfjycTQMWd6MxkMEhZlviuOqape-wISxxSno5BhL1WMV5Mb5Wka5pcLjfKG52AIoAxcTcr9N6Gvv0VJrBpsXh-5xY34iKDhb-HjOIKU5fgkJBed3YAh2kGgu9iRLHJdWcCynOQZgZP6foxP2Qzg1cZOTHqSPRdAPaMFJXMuyafTZ1B2gb5HgEH6azJvDzMV-wz8nxr6ufn7DgTPUoCsMdnJVqvPI2Y8JkB_lY_pdWFIcbJY9D8UsXc8eEqfpykGTbDe7DOkxYDOoIqlArmrjaAfsSgd_J2jx_1cGpH2TYuESgZkQiN1bcyPzddZ_DM4ywzkB6qwl4BMRLg06A7qDcQ97fjC8021uDpeMe2rjO4XNNPQC0OpbwJFPfMGN3-Ivh2N_ro-uBlnNEGqd_ufCEtKrUXLkAKFNqCDDAkC4FHLDGoF0FQFZVUOSkyx5QDOsdF5n_3uJ39DV5wajqdzhFDTe4sRllY2m00]--></g></svg>

<svg xmlns="http://www.w3.org/2000/svg" width="673" height="645" viewBox="0 0 673 645"><rect width="179" height="39.789" x="7" y="599.55" fill="#3D176E" rx="2.5" ry="2.5" style="stroke:#000d19;stroke-width:.5"/><circle cx="22" cy="619.444" r="11" fill="#ADD1B2" style="stroke:#181818;stroke-width:1"/><path d="M24.969 625.085q-.578.297-1.219.438-.64.156-1.344.156-2.5 0-3.828-1.64-1.312-1.657-1.312-4.782t1.312-4.781q1.328-1.657 3.828-1.657.703 0 1.344.157.656.156 1.219.453v2.719q-.625-.579-1.219-.844-.594-.281-1.219-.281-1.343 0-2.031 1.078-.687 1.062-.687 3.156t.687 3.172q.688 1.062 2.031 1.062.625 0 1.219-.265.594-.282 1.219-.86z"/><text x="41" y="625.33" fill="#D9B8FF" font-family="Helvetica" font-size="17" textLength="137">aws_ec2_subnet</text><rect width="233" height="39.789" x="221" y="599.55" fill="#3D176E" rx="2.5" ry="2.5" style="stroke:#000d19;stroke-width:.5"/><circle cx="236" cy="619.444" r="11" fill="#ADD1B2" style="stroke:#181818;stroke-width:1"/><path d="M238.969 625.085q-.578.297-1.219.438-.64.156-1.344.156-2.5 0-3.828-1.64-1.312-1.657-1.312-4.782t1.312-4.781q1.328-1.657 3.828-1.657.703 0 1.344.157.656.156 1.219.453v2.719q-.625-.579-1.219-.844-.594-.281-1.219-.281-1.344 0-2.031 1.078-.687 1.062-.687 3.156t.687 3.172q.688 1.062 2.031 1.062.625 0 1.219-.265.594-.282 1.219-.86z"/><text x="255" y="625.33" fill="#D9B8FF" font-family="Helvetica" font-size="17" textLength="191">azure_network_subnet</text><rect width="178" height="39.789" x="488.5" y="599.55" fill="#3D176E" rx="2.5" ry="2.5" style="stroke:#000d19;stroke-width:.5"/><circle cx="503.5" cy="619.444" r="11" fill="#ADD1B2" style="stroke:#181818;stroke-width:1"/><path d="M506.469 625.085q-.578.297-1.219.438-.64.156-1.344.156-2.5 0-3.828-1.64-1.312-1.657-1.312-4.782t1.312-4.781q1.328-1.657 3.828-1.657.703 0 1.344.157.656.156 1.219.453v2.719q-.625-.579-1.219-.844-.594-.281-1.219-.281-1.344 0-2.031 1.078-.687 1.062-.687 3.156t.687 3.172q.688 1.062 2.031 1.062.625 0 1.219-.265.594-.282 1.219-.86z"/><text x="522.5" y="625.33" fill="#D9B8FF" font-family="Helvetica" font-size="17" textLength="136">gcp_subnetwork</text><rect width="227" height="310.758" x="224" y="7" fill="#3D176E" rx="2.5" ry="2.5" style="stroke:#000d19;stroke-width:.5"/><circle cx="292.75" cy="26.895" r="11" fill="#ADD1B2" style="stroke:#181818;stroke-width:1"/><path d="M295.719 32.535q-.578.297-1.219.438-.64.156-1.344.156-2.5 0-3.828-1.64-1.312-1.657-1.312-4.782t1.312-4.781q1.328-1.656 3.828-1.656.703 0 1.344.156.656.156 1.219.453v2.719q-.625-.578-1.219-.844-.594-.281-1.219-.281-1.344 0-2.031 1.078-.687 1.062-.687 3.156t.687 3.172q.688 1.062 2.031 1.062.625 0 1.219-.265.594-.281 1.219-.86z"/><text x="318.25" y="32.78" fill="#D9B8FF" font-family="Helvetica" font-size="17" textLength="71">resource</text><path d="M225 46.789h225" style="stroke:#000d19;stroke-width:.5"/><text x="235" y="68.784" fill="#D9B8FF" font-family="sans-serif" font-size="14" font-weight="bold" textLength="29">age</text><text x="264" y="68.784" fill="#D9B8FF" font-family="sans-serif" font-size="14" textLength="66">: duration</text><text x="235" y="95.081" fill="#D9B8FF" font-family="sans-serif" font-size="14" font-weight="bold" textLength="43">atime</text><text x="278" y="95.081" fill="#D9B8FF" font-family="sans-serif" font-size="14" textLength="70">: datetime</text><text x="235" y="121.378" fill="#D9B8FF" font-family="sans-serif" font-size="14" font-weight="bold" textLength="43">ctime</text><text x="278" y="121.378" fill="#D9B8FF" font-family="sans-serif" font-size="14" textLength="70">: datetime</text><text x="235" y="147.675" fill="#D9B8FF" font-family="sans-serif" font-size="14" font-weight="bold" textLength="14">id</text><text x="249" y="147.675" fill="#D9B8FF" font-family="sans-serif" font-size="14" textLength="48">: string</text><text x="235" y="173.972" fill="#D9B8FF" font-family="sans-serif" font-size="14" font-weight="bold" textLength="33">kind</text><text x="268" y="173.972" fill="#D9B8FF" font-family="sans-serif" font-size="14" textLength="48">: string</text><text x="235" y="200.269" fill="#D9B8FF" font-family="sans-serif" font-size="14" font-weight="bold" textLength="90">last_access</text><text x="325" y="200.269" fill="#D9B8FF" font-family="sans-serif" font-size="14" textLength="66">: duration</text><text x="235" y="226.565" fill="#D9B8FF" font-family="sans-serif" font-size="14" font-weight="bold" textLength="90">last_update</text><text x="325" y="226.565" fill="#D9B8FF" font-family="sans-serif" font-size="14" textLength="66">: duration</text><text x="235" y="252.862" fill="#D9B8FF" font-family="sans-serif" font-size="14" font-weight="bold" textLength="48">mtime</text><text x="283" y="252.862" fill="#D9B8FF" font-family="sans-serif" font-size="14" textLength="70">: datetime</text><text x="235" y="279.159" fill="#D9B8FF" font-family="sans-serif" font-size="14" font-weight="bold" textLength="43">name</text><text x="278" y="279.159" fill="#D9B8FF" font-family="sans-serif" font-size="14" textLength="48">: string</text><text x="235" y="305.456" fill="#D9B8FF" font-family="sans-serif" font-size="14" font-weight="bold" textLength="34">tags</text><text x="269" y="305.456" fill="#D9B8FF" font-family="sans-serif" font-size="14" textLength="171">: dictionary[string, string]</text><rect width="99" height="39.789" x="288" y="438.76" fill="#3D176E" rx="2.5" ry="2.5" style="stroke:#000d19;stroke-width:.5"/><circle cx="303" cy="458.654" r="11" fill="#ADD1B2" style="stroke:#181818;stroke-width:1"/><path d="M305.969 464.295q-.578.297-1.219.438-.64.156-1.344.156-2.5 0-3.828-1.64-1.312-1.657-1.312-4.782t1.312-4.781q1.328-1.656 3.828-1.656.703 0 1.344.156.656.156 1.219.453v2.719q-.625-.579-1.219-.844-.594-.281-1.219-.281-1.344 0-2.031 1.078-.687 1.062-.687 3.156t.687 3.172q.688 1.062 2.031 1.062.625 0 1.219-.265.594-.281 1.219-.86z"/><text x="322" y="464.54" fill="#D9B8FF" font-family="Helvetica" font-size="17" textLength="57">subnet</text><path fill="none" d="M293.4 488.714c-46.32 30.52-121.34 79.946-167.73 110.506m182.76-120.41-18.332 4.893 6.603 10.02zm29.07 18v102.41m0-120.41-6 18h12zm43.962 9.932c46.13 30.52 120.788 79.918 166.988 110.478m-182-120.41 11.701 14.936 6.621-10.008zM337.5 335.85v102.83m0-120.83-6 18h12z" style="stroke:#ffaf37;stroke-width:2"/></svg>
